!!!OTL: Gongda kaihuaxian
!!!ARE: Asia, China,ÿZhejiang Kaihua
!! III, 624
!!!SCT: C1907
!!!YEM: Copyright 1995, estate of Helmut Schaffrath.
**kern
*ICvox
*Ivox
*M2/4
*k[f#c#]
*D:
{8a
16a
16f#
8a
16b
16dd
=1
4a
4a}
=2
{8b
16b
16dd
8ee
16ee
16dd
=3
4b
4dd}
=4
{8a
4a
8b
=5
8.ee
16ee
8dd
8b
=6
8.a
16b
8dd
16ee
16dd
=7
4b
4dd}
=8
{8a
8f#
8a
16b
16dd
=9
4a
4a}
==
!!!AGN: Xiaodiao
!!!AMT: simple duple
!!!AIN: vox
!!!EED: Helmut Schaffrath
!!!EEV: 1.0
*-
